X:33
T: Leanbh an chlamhrin, S. 26
N: I0532
O: Irland
S: O'SULLIVAN, Donal: Song of the Irish]
R: Schlaflied]
M: 9/8
L: 1/16
K: D
FF | F2E2F2D2E2D2FED3
D | F2E2F2D2E2D2G2E2
C2 | F2E2F2D2E2D2FED2
DD | E2F2E2c2B2A2G2E3
C | F2D2F2A2A2d2AAA3
d | F2D2F2A2A2edG2E3
C | F2D2F2A2A2d2A2G3F | EGG2E2c2B2A2G2E2

@@@ Tune index: 7308
